media/logo.svg

<?xml version="1.0" encoding="UTF-8"?>
<svg width="256px" height="192px" viewBox="0 0 256 192" version="1.1" xmlns="http://www.w3.org/2000/svg" xmlns:xlink="http://www.w3.org/1999/xlink">
    <!-- Generator: Sketch 48.2 (47327) - http://www.bohemiancoding.com/sketch -->
    <title>logo</title>
    <desc>Created with Sketch.</desc>
    <defs>
        <linearGradient x1="0%" y1="0%" x2="101.999998%" y2="100.999999%" id="linearGradient-1">
            <stop stop-color="#3023AE" offset="0%"></stop>
            <stop stop-color="#C86DD7" offset="100%"></stop>
        </linearGradient>
        <linearGradient x1="50%" y1="0%" x2="50%" y2="100%" id="linearGradient-2">
            <stop stop-color="#FFFFFF" stop-opacity="0" offset="0%"></stop>
            <stop stop-color="#FFFFFF" offset="100%"></stop>
        </linearGradient>
    </defs>
    <g id="Page-1" stroke="none" stroke-width="1" fill="none" fill-rule="evenodd">
        <path d="M70.4,172.504 L61.616,172.504 L61.616,153.496 C61.616,148.816 59.168,144.568 54.344,144.568 C49.592,144.568 46.784,148.816 46.784,153.496 L46.784,172.504 L38,172.504 L38,136.936 L46.136,136.936 L46.784,141.256 C48.656,137.656 52.76,136.36 56.144,136.36 C60.392,136.36 64.64,138.088 66.656,142.984 C69.824,137.944 73.928,136.504 78.536,136.504 C88.616,136.504 93.584,142.696 93.584,153.352 L93.584,172.504 L84.8,172.504 L84.8,153.352 C84.8,148.672 82.856,144.712 78.104,144.712 C73.352,144.712 70.4,148.816 70.4,153.496 L70.4,172.504 Z M108.296,136.864 L108.296,172.504 L99.512,172.504 L99.512,136.864 L108.296,136.864 Z M140.768,162.208 L146.672,167.968 C142.568,172 138.248,173.584 132.992,173.584 C122.696,173.584 114.128,167.392 114.128,154.792 C114.128,142.192 122.696,136 132.992,136 C138.032,136 141.92,137.44 145.808,141.256 L140.264,147.088 C138.176,145.216 135.584,144.28 133.136,144.28 C127.232,144.28 122.912,148.6 122.912,154.792 C122.912,161.56 127.52,165.16 132.992,165.16 C135.8,165.16 138.608,164.368 140.768,162.208 Z M152.56,137.008 L160.696,137.008 L161.344,141.112 C164.08,136.72 167.752,136.072 171.352,136.072 C175.024,136.072 178.552,137.512 180.496,139.456 L176.536,147.088 C174.736,145.576 173.08,144.784 170.2,144.784 C165.592,144.784 161.344,147.232 161.344,153.784 L161.344,172.504 L152.56,172.504 L152.56,137.008 Z M198.512,136.288 C209.816,136.288 217.088,144.64 217.088,154.792 C217.088,165.016 210.104,173.296 198.584,173.296 C187.064,173.296 180.152,165.016 180.152,154.792 C180.152,144.64 187.208,136.288 198.512,136.288 Z M198.584,144.28 C192.248,144.28 188.936,149.464 188.936,154.792 C188.936,160.192 192.176,165.232 198.584,165.232 C204.992,165.232 208.232,160.192 208.232,154.792 C208.232,149.464 204.488,144.28 198.584,144.28 Z" id="micro" fill="#2B1C38"></path>
        <path d="M95,64 C95,43.7458117 101.673112,20.9698691 116.984375,19.9453125 C133.927209,18.811579 159.673684,41.5875216 159.673684,64 C159.673684,106.666667 95,106.666667 95,64 Z" id="Path" fill="url(#linearGradient-1)"></path>
        <path d="M107.251425,52.0669414 C116.415521,26.8887966 127.207142,24.4019347 144.368163,51.2965333 C152.06,63.3511105 141.759701,84.283434 128.736683,85.879188 C115.651634,87.4825427 99.1446908,74.3400118 107.251425,52.0669414 Z" id="Path" fill="url(#linearGradient-2)" opacity="0.300000012" style="mix-blend-mode: soft-light;" transform="translate(126.055186, 59.073120) rotate(160.000000) translate(-126.055186, -59.073120) "></path>
    </g>
</svg>

<svg viewBox="0 0 256 192" xmlns="http://www.w3.org/2000/svg"><defs><linearGradient x1="0%" y1="0%" x2="102%" y2="101%" id="a"><stop stop-color="#3023AE" offset="0%"/><stop stop-color="#C86DD7" offset="100%"/></linearGradient><linearGradient x1="50%" y1="0%" x2="50%" y2="100%" id="b"><stop stop-color="#FFF" stop-opacity="0" offset="0%"/><stop stop-color="#FFF" offset="100%"/></linearGradient></defs><g fill="none" fill-rule="evenodd"><path d="M70.4 172.504h-8.784v-19.008c0-4.68-2.448-8.928-7.272-8.928-4.752 0-7.56 4.248-7.56 8.928v19.008H38v-35.568h8.136l.648 4.32c1.872-3.6 5.976-4.896 9.36-4.896 4.248 0 8.496 1.728 10.512 6.624 3.168-5.04 7.272-6.48 11.88-6.48 10.08 0 15.048 6.192 15.048 16.848v19.152H84.8v-19.152c0-4.68-1.944-8.64-6.696-8.64s-7.704 4.104-7.704 8.784v19.008zm37.896-35.64v35.64h-8.784v-35.64h8.784zm32.472 25.344l5.904 5.76c-4.104 4.032-8.424 5.616-13.68 5.616-10.296 0-18.864-6.192-18.864-18.792 0-12.6 8.568-18.792 18.864-18.792 5.04 0 8.928 1.44 12.816 5.256l-5.544 5.832c-2.088-1.872-4.68-2.808-7.128-2.808-5.904 0-10.224 4.32-10.224 10.512 0 6.768 4.608 10.368 10.08 10.368 2.808 0 5.616-.792 7.776-2.952zm11.792-25.2h8.136l.648 4.104c2.736-4.392 6.408-5.04 10.008-5.04 3.672 0 7.2 1.44 9.144 3.384l-3.96 7.632c-1.8-1.512-3.456-2.304-6.336-2.304-4.608 0-8.856 2.448-8.856 9v18.72h-8.784v-35.496zm45.952-.72c11.304 0 18.576 8.352 18.576 18.504 0 10.224-6.984 18.504-18.504 18.504-11.52 0-18.432-8.28-18.432-18.504 0-10.152 7.056-18.504 18.36-18.504zm.072 7.992c-6.336 0-9.648 5.184-9.648 10.512 0 5.4 3.24 10.44 9.648 10.44 6.408 0 9.648-5.04 9.648-10.44 0-5.328-3.744-10.512-9.648-10.512z" fill="#2B1C38"/><path d="M95 64c0-20.254 6.673-43.03 21.984-44.055 16.943-1.133 42.69 21.643 42.69 44.055 0 42.667-64.674 42.667-64.674 0z" fill="url(#a)"/><path d="M107.251 52.067c9.165-25.178 19.956-27.665 37.117-.77 7.692 12.054-2.608 32.986-15.631 34.582-13.085 1.604-29.592-11.539-21.486-33.812z" fill="url(#b)" opacity=".3" style="mix-blend-mode:soft-light" transform="rotate(160 126.055 59.073)"/></g></svg>
